X: 1
T: Margaret Cromar
M: 3/4
L: 1/8
R: waltz
K: Gmaj
DGA | BD3D2 | E<G-G2Ge | d6- | d4dc |
{A}B3-B/B/-(3B/c/B/A/B/ | G4D2 | E<G-G2{A}BA | A3DGA |
BD3D2 | E<G-G2Ge | d3-d/c/B2 | {B}g4{e}fe |
d2D3D | {A}B3(3B/c/B/AG |1 G6- | G3 :|2 G6- ||
G2GABd | {e}=f3g fd | e3=f e<c | Bd3-d2- |
dG GABd | {e}=f3g fd | e4dc | dD3{A}BA |
A2GABd | {e}=f3g fd | e3=f e<c | {c}d3-d/c/B2 |
{B}g4{e}fe | d2D3D | {A}B3(3B/c/B/ AG | G6- |
G3 |: DGA | BD3D2 | E<G-G2Ge | d6- | d4dc |
{A}B3-B/B/-(3B/c/B/A/B/ | G4D2 | E<G-G2{A}BA | A3DGA |
BD3D2 | E<G-G2Ge | d3-d/c/B2 | {B}g4{e}fe |
d2D3D | {A}B3(3B/c/B/AG |1 G6- | G3 :|2 G6- ||
G2 GABd | {e}=f3g fd | e3=f e<c | Bd3-d2- |
dG GABd | {e}=f3g fd | e4dc | dD3{A}BA |
A2 GABd | {e}=f3g fd | e3=f e<c | {c}d3-d/c/B2 |
{B}g4{e}fe | d2D3D | {A}B3(3B/c/B/AG | G6- |
G2 GABd | {e}=f3g fd | e3=f e<c | Bd3-d2- |
dG GABd | {e}=f3g fd | e4dc | d2D2{A}BA |
A3DGA | BD3D2 | E<G-G2Ge | d3-d/c/B2 |
{B}g4{e}fe | d2D3D | {A}B3(3B/c/B/AG | G6- |G3 ||
